svg/set/.alt/V17/WM.svg

<?xml version="1.0" encoding="UTF-8" standalone="no"?>
<svg
   version="1.1"
   x="0px"
   y="0px"
   width="897.0332"
   height="896.99597"
   id="svg1"
   xmlns="http://www.w3.org/2000/svg"
   xmlns:svg="http://www.w3.org/2000/svg">
  <defs
     id="defs1" />
  <path
     d="M 445.42162,0.0199469 C 421.23682,0.23891564 397.0827,2.2582125 373.28295,5.9984625 247.84095,26.474463 133.44371,103.83762 67.042716,212.15862 c -75.199,119.277 -87.359375,274.31603 -35.359375,404.95703 32.32,82.563 91.519149,153.35968 164.160149,203.67969 97.199,66.56299 221.11952,89.8395 336.47852,68.5625 137.281,-25.042 259.51997,-118.88052 319.91797,-244.47852 46.32,-93.602 55.92147,-203.28345 32.48047,-304.56445 C 855.68145,215.83787 769.28279,106.31537 655.12279,48.877369 590.80129,14.916619 517.97601,-0.63695935 445.42162,0.0199469 Z M 559.54857,143.16838 c 56.98331,0.56555 110.58172,27.35908 157.7207,57.66797 -0.002,-0.002 -0.004,-0.005 -0.006,-0.008 0.19101,0.123 0.38713,0.24514 0.57813,0.36914 -0.1889,-0.12171 -0.38315,-0.23974 -0.57227,-0.36133 52.16732,58.14695 86.03206,132.76395 92.3418,210.8457 0.961,41.602 3.19919,84.15879 -7.75781,124.80079 -25.281,107.67999 -103.44134,200.64245 -204.40235,245.43945 -106.84099,48.55 -236.65251,39.18248 -337.10351,-19.85352 -12.18,-19.172 -30.70042,-37.6885 -28.10742,-62.3125 1.203,-33.52 36.96093,-52.16053 66.96093,-53.51953 55.44115,-6.39781 104.40239,26.32091 145.2814,59.76191 -34.96101,-106.243 -157.35999,-174.16009 -266.08399,-155.12109 47.922,-37.52 107.76181,-59.52 168.88281,-60 80.078,-0.562 157.11871,29.28159 224.72071,70.55859 -71.679,-113.68 -200.80119,-181.51997 -330.24219,-205.91797 24.562,-13.84 54.15845,-11.35903 81.43945,-14.08203 144.801,1.039 279.92374,63.44166 402.80274,134.72266 -80,-137.524 -222.08247,-226.96082 -370.48047,-274.88282 141.281,-14.078 282.48037,34.40257 399.35937,111.60157 -49.199,-74.16 -120.5589,-132.08169 -200.8789,-169.67969 1.85253,-0.0375 3.70133,-0.0476 5.54687,-0.0293 z"
     id="path1" />
</svg>

<?xml version="1.0" encoding="utf-8"?>
<svg xmlns="http://www.w3.org/2000/svg" xmlns:xlink="http://www.w3.org/1999/xlink" version="1.1" x="0px" y="0px" width="897.035px" height="896.997px">
  <path
     d="M 445.42383 0.021484375 C 421.23903 0.24045312 397.08491 2.25975 373.28516 6 C 247.84316 26.476 133.44592 103.83916 67.044922 212.16016 C -8.1540781 331.43716 -20.314453 486.47619 31.685547 617.11719 C 64.005547 699.68019 123.2047 770.47687 195.8457 820.79688 C 293.0447 887.35987 416.96522 910.63638 532.32422 889.35938 C 669.60522 864.31738 791.84419 770.47886 852.24219 644.88086 C 898.56219 551.27886 908.16366 441.59741 884.72266 340.31641 C 855.68366 215.83941 769.285 106.31691 655.125 48.878906 C 590.8035 14.918156 517.97822 -0.63542187 445.42383 0.021484375 z M 559.55078 143.16992 C 616.53409 143.73547 670.1325 170.529 717.27148 200.83789 C 717.26932 200.83548 717.26779 200.83249 717.26562 200.83008 C 717.45663 200.95308 717.65275 201.07522 717.84375 201.19922 C 717.65485 201.07751 717.4606 200.95948 717.27148 200.83789 C 769.4388 258.98484 803.30354 333.60184 809.61328 411.68359 C 810.57428 453.28559 812.81247 495.84238 801.85547 536.48438 C 776.57447 644.16437 698.41413 737.12683 597.45312 781.92383 C 490.61213 830.47383 360.80061 821.10631 260.34961 762.07031 C 248.16961 742.89831 229.64919 724.38181 232.24219 699.75781 C 233.44519 666.23781 269.20312 647.59728 299.20312 646.23828 C 354.64413 639.84028 403.60537 672.559 444.48438 706 C 409.52337 599.757 287.12439 531.83991 178.40039 550.87891 C 226.32239 513.35891 286.1622 491.35891 347.2832 490.87891 C 427.3612 490.31691 504.40191 520.1605 572.00391 561.4375 C 500.32491 447.7575 371.20272 379.91753 241.76172 355.51953 C 266.32372 341.67953 295.92017 344.1605 323.20117 341.4375 C 468.00217 342.4765 603.12491 404.87916 726.00391 476.16016 C 646.00391 338.63616 503.92144 249.19934 355.52344 201.27734 C 496.80444 187.19934 638.00381 235.67991 754.88281 312.87891 C 705.68381 238.71891 634.32391 180.79722 554.00391 143.19922 C 555.85644 143.16175 557.70524 143.15161 559.55078 143.16992 z "
   /></svg>
